X:1
T:Title
%%score ( 1 2 ) 3
L:1/8
Q:1/4=100
M:4/4
K:Bb
V:1 treble nm="Grand Piano, Soprano"
V:2 treble 
V:3 bass nm="Choir Pad, The Story of His Love"
V:1
 [DF]2 [DF]2- [DF][DF][_D=E][=DF] | [DB]>[E_d] [F=d]4 [DB]2 | [DB]2 [CA]2- [CA][DB] [Ec]2 | %3
w: By~Charles~Clinton~Case * * * * *|||
 [EF]2 [Dd]6 | [DF]2 [DF]2- [DF][DF][_D=E][=DF] | [DB]>[=E_d] [F=d]4 [DB]2 | %6
w: |||
 [FB]2 [Ec]2 [Ge]2 [Fd]2 | [Ec]2 [DB]6 | z2 [GB]6 | [FA]>[EG] [DF]4 [DB]2 | %10
w: ||||
 [FB]2 [Ec]2 [Fd]2 [Ge]2 | .F2 B4 z2 | [DB]2 [GB]6 | [FA][EG] [DF]4 [DB]2 | %14
w: ||||
 [FB]2 [Ec]2 [Fd]2 [Ge]2 | A2 z2 z4 | z8 |] %17
w: |||
V:2
 x8 | x8 | x8 | x8 | x8 | x8 | x8 | x8 | x8 | x8 | x8 | A-[EA] D4- [DF]2 | x8 | x8 | x8 | %15
 FE [DB]6- | [DB]2 z2 z4 |] %17
V:3
 [B,,B,]2 [B,,B,]2- [B,,B,][B,,B,][B,,B,][B,,B,] | [B,,B,]>[B,,B,] [B,,B,]6 | %2
 [B,,B,]2 [F,C]2- [F,C][F,B,] [F,A,]2 | [F,A,]2 [B,,B,]6 | %4
 [B,,B,]2 [B,,B,]2- [B,,B,][B,,B,][B,,B,][B,,B,] | [B,,B,]>[B,,B,] [B,,B,]6 | %6
 [D,B,]2 [E,G,]2 [C,G,]2 [F,A,]2 | [F,A,]2 [B,,B,]6 | z4 [E,B,]2 [E,B,]2 | %9
 z4 [B,,B,]>[B,,B,] [B,,B,][B,,B,] | D,2 [E,G,]2 [D,G,]2 [C,G,]2 | F,2 [B,,F,]2 [B,,F,]2 [B,,F,]2 | %12
 z4 [E,B,]2 [E,B,]2 | z4 [B,,B,]2 [B,,B,][B,,B,] | [D,B,]2 [E,G,]2 [D,G,]2 [C,G,]2 | %15
 F,2 [B,,F,]6- | [B,,F,]2 z2 z4 |] %17

